X: 25
T: PAS DES PATINEURS de MALVILLE
M: 4/4
L: 1/8
Q:1/4=60
K:G
|d/2B/2d/2g/2fe e/2c/2e/2a/2gf|f/2e/2f/2g/2aa/2b/2 a/2g/2f/2e/2dd
|d/2B/2d/2g/2fe e/2c/2e/2a/2gf|f/2e/2f/2g/2aa/2b/2 a/2g/2f/2e/2d3/2g/2
|fec3/2e/2 dGB3/2d/2|cAGB G/2D/2G/2B/2d/2B/2d/2g/2
|fec3/2e/2 dGB3/2d/2|cAGB GGG2|
